X:60
T:La Encantadora
T:(The Enchantress)
R:double jig
C: 1988, 2010 L.E. McCullough  
M:6/8
L:1/8
K:D
de|:fAA gfe|fAA def|eAA gAA|fAA ede|
fAA gfe|fAA def|eAA gfe|edc d3:|
|:~A3 Bde|~f3 agf|eAA gfe|faf gfe|
~A3 Bde|~f3 agf|eAA gfe|edc d3:|


